icons/circle-chevron-left.svg

<svg xmlns="http://www.w3.org/2000/svg" width="24" height="24" viewBox="0 0 24 24">
  <path d="M12,1 C18.0751322,1 23,5.92486775 23,12 C23,18.0751322 18.0751322,23 12,23 C5.92486775,23 1,18.0751322 1,12 C1,5.92486775 5.92486775,1 12,1 Z M14.7071068,7.29289322 C14.3165825,6.90236893 13.6834175,6.90236893 13.2928932,7.29289322 L13.2928932,7.29289322 L9.29289322,11.2928932 L9.20970461,11.3871006 C8.90467972,11.7793918 8.93240926,12.3466228 9.29289322,12.7071068 L9.29289322,12.7071068 L13.2928932,16.7071068 L13.3871006,16.7902954 C13.7793918,17.0953203 14.3466228,17.0675907 14.7071068,16.7071068 L14.7071068,16.7071068 L14.7902954,16.6128994 C15.0953203,16.2206082 15.0675907,15.6533772 14.7071068,15.2928932 L14.7071068,15.2928932 L11.415,12 L14.7071068,8.70710678 L14.7902954,8.61289944 C15.0953203,8.22060824 15.0675907,7.65337718 14.7071068,7.29289322 Z"/>
</svg>

<svg xmlns="http://www.w3.org/2000/svg" viewBox="0 0 24 24">
  <path d="M12 1a11 11 0 1 1 0 22 11 11 0 0 1 0-22zm2.7 6.3a1 1 0 0 0-1.4 0l-4 4-.09.09a1 1 0 0 0 .08 1.32l4 4 .1.08a1 1 0 0 0 1.32-.08l.08-.1a1 1 0 0 0-.08-1.32L11.4 12l3.3-3.3.08-.09a1 1 0 0 0-.08-1.32z"/>
</svg>
